Adwaita++/apps/16/share.svg

<svg height="16" width="16" xmlns="http://www.w3.org/2000/svg">
  <g fill="#474747">
    <path d="m5.969 7.969a2.969 2.969 0 0 1 -2.969 2.968 2.969 2.969 0 0 1 -2.969-2.967 2.969 2.969 0 0 1 2.97-2.97 2.969 2.969 0 0 1 2.968 2.969zm9.969 5a2.969 2.969 0 0 1 -2.97 2.969 2.969 2.969 0 0 1 -2.968-2.971 2.969 2.969 0 0 1 2.969-2.967 2.969 2.969 0 0 1 2.969 2.969zm0-10a2.969 2.969 0 0 1 -2.97 2.969 2.969 2.969 0 0 1 -2.968-2.971 2.969 2.969 0 0 1 2.969-2.967 2.969 2.969 0 0 1 2.969 2.969z"/>
    <path d="m12.614 2.146-11.867 5.778 11.855 5.969.899-1.788-8.248-4.15 8.236-4.012z"/>
  </g>
</svg>

<svg xmlns="http://www.w3.org/2000/svg" width="16" height="16">
    <g color="#000" fill="#474747">
        <path d="M5.969 7.969A2.969 2.969 0 0 1 3 10.937 2.969 2.969 0 0 1 .031 7.97 2.969 2.969 0 0 1 3.001 5a2.969 2.969 0 0 1 2.968 2.969zM15.938 12.969a2.969 2.969 0 0 1-2.97 2.969A2.969 2.969 0 0 1 10 12.967 2.969 2.969 0 0 1 12.969 10a2.969 2.969 0 0 1 2.969 2.969zM15.938 2.969a2.969 2.969 0 0 1-2.97 2.969A2.969 2.969 0 0 1 10 2.967 2.969 2.969 0 0 1 12.969 0a2.969 2.969 0 0 1 2.969 2.969z" style="marker:none" overflow="visible"/>
        <path d="M12.614 2.146L.747 7.924l11.855 5.969.899-1.788-8.248-4.15 8.236-4.012z" style="line-height:normal;font-variant-ligatures:normal;font-variant-position:normal;font-variant-caps:normal;font-variant-numeric:normal;font-variant-alternates:normal;font-feature-settings:normal;text-indent:0;text-align:start;text-decoration-line:none;text-decoration-style:solid;text-decoration-color:#000;text-transform:none;text-orientation:mixed;shape-padding:0;isolation:auto;mix-blend-mode:normal;marker:none" font-weight="400" font-family="sans-serif" white-space="normal" overflow="visible"/>
    </g>
</svg>
